src/assets/icons/Git.svg

<svg xmlns="http://www.w3.org/2000/svg" width="256" height="256" fill="none" viewBox="0 0 256 256"><rect width="256" height="256" fill="#F03C2E" rx="60"/><g clip-path="url(#clip0_7_283)"><path fill="#fff" d="M224.225 119.094L136.906 31.775C135.711 30.5787 134.291 29.6298 132.729 28.9824C131.166 28.3349 129.491 28.0017 127.8 28.0017C126.109 28.0017 124.434 28.3349 122.871 28.9824C121.309 29.6298 119.889 30.5787 118.694 31.775L100.569 49.9L123.569 72.9C128.919 71.025 135.044 72.3062 139.306 76.5687C141.335 78.6014 142.752 81.1638 143.394 83.9632C144.036 86.7626 143.878 89.6862 142.937 92.4L165.106 114.569C170.469 112.719 176.656 113.912 180.937 118.206C182.361 119.63 183.49 121.32 184.26 123.18C185.03 125.04 185.426 127.033 185.426 129.046C185.425 131.059 185.029 133.052 184.258 134.912C183.487 136.771 182.358 138.461 180.934 139.884C179.511 141.308 177.821 142.436 175.961 143.206C174.101 143.977 172.108 144.373 170.095 144.372C168.082 144.372 166.088 143.975 164.229 143.205C162.369 142.434 160.679 141.305 159.256 139.881C154.756 135.381 153.644 128.756 155.919 123.212L135.244 102.537V156.944C136.745 157.686 138.116 158.666 139.306 159.844C140.729 161.267 141.858 162.956 142.629 164.816C143.399 166.675 143.795 168.668 143.795 170.681C143.795 172.694 143.399 174.687 142.629 176.546C141.858 178.406 140.729 180.096 139.306 181.519C137.883 182.942 136.193 184.071 134.334 184.841C132.474 185.611 130.481 186.008 128.469 186.008C126.456 186.008 124.463 185.611 122.604 184.841C120.744 184.071 119.054 182.942 117.631 181.519C116.206 180.096 115.076 178.407 114.305 176.548C113.533 174.688 113.136 172.694 113.136 170.681C113.136 168.668 113.533 166.675 114.305 164.815C115.076 162.955 116.206 161.266 117.631 159.844C119.112 158.369 120.756 157.25 122.65 156.5V101.587C120.825 100.837 119.112 99.7312 117.631 98.2437C115.479 96.0943 114.016 93.3526 113.428 90.3684C112.841 87.3841 113.155 84.2924 114.331 81.4875L91.6437 58.8125L31.7687 118.625C30.5716 119.821 29.6219 121.241 28.9739 122.804C28.3259 124.367 27.9924 126.042 27.9924 127.734C27.9924 129.426 28.3259 131.102 28.9739 132.665C29.6219 134.228 30.5716 135.648 31.7687 136.844L119.094 224.156C120.289 225.352 121.709 226.301 123.271 226.949C124.834 227.596 126.509 227.929 128.2 227.929C129.891 227.929 131.566 227.596 133.129 226.949C134.691 226.301 136.111 225.352 137.306 224.156L224.225 137.375C225.422 136.179 226.372 134.759 227.02 133.196C227.668 131.633 228.001 129.958 228.001 128.266C228.001 126.574 227.668 124.898 227.02 123.335C226.372 121.772 225.422 120.352 224.225 119.156"/></g><defs><clipPath id="clip0_7_283"><rect width="200" height="200" fill="#fff" transform="translate(28 28)"/></clipPath></defs></svg>

<svg xmlns="http://www.w3.org/2000/svg" width="256" height="256" fill="none"><rect width="256" height="256" fill="#F03C2E" rx="60"/><g clip-path="url(#a)"><path fill="#fff" d="m224.225 119.094-87.319-87.319a12.869 12.869 0 0 0-14.035-2.793 12.869 12.869 0 0 0-4.177 2.793L100.569 49.9l23 23c5.35-1.875 11.475-.594 15.737 3.669a15.313 15.313 0 0 1 3.631 15.831l22.169 22.169c5.363-1.85 11.55-.657 15.831 3.637a15.322 15.322 0 0 1 3.321 16.706 15.333 15.333 0 0 1-20.029 8.293c-1.86-.771-3.55-1.9-4.973-3.324-4.5-4.5-5.612-11.125-3.337-16.669l-20.675-20.675v54.407a15.605 15.605 0 0 1 4.062 2.9 15.326 15.326 0 0 1-21.675 21.675 15.318 15.318 0 0 1-3.326-16.704 15.297 15.297 0 0 1 3.326-4.971c1.481-1.475 3.125-2.594 5.019-3.344v-54.913a15.216 15.216 0 0 1-5.019-3.343 15.315 15.315 0 0 1-3.3-16.757L91.644 58.813l-59.875 59.812a12.88 12.88 0 0 0-2.795 14.04 12.88 12.88 0 0 0 2.795 4.179l87.325 87.312a12.884 12.884 0 0 0 4.177 2.793 12.888 12.888 0 0 0 9.858 0 12.884 12.884 0 0 0 4.177-2.793l86.919-86.781a12.882 12.882 0 0 0 3.776-9.109 12.876 12.876 0 0 0-3.776-9.11"/></g><defs><clipPath id="a"><path fill="#fff" transform="translate(28 28)" d="M0 0h200v200H0z"/></clipPath></defs></svg>
